packages/symbols/svgs/solid/magic-wand-solid.svg

<svg width="16" height="16" viewBox="0 0 16 16" xmlns="http://www.w3.org/2000/svg">
<g clip-path="url(#clip0_3205_2329)">
<path d="M11.8047 6.19533L9.80465 4.19533C9.54398 3.93467 9.12265 3.93467 8.86198 4.19533L0.195317 12.862C-0.0653498 13.1227 -0.0653498 13.544 0.195317 13.8047L2.19532 15.8047C2.32532 15.9347 2.49598 16 2.66665 16C2.83732 16 3.00798 15.9347 3.13798 15.8047L11.8047 7.138C12.0653 6.87733 12.0653 6.456 11.8047 6.19533ZM8.66665 8.39067L7.60932 7.33333L9.33332 5.60933L10.3907 6.66667L8.66665 8.39067Z" fill="currentColor"/>
<path d="M15.3333 1.66667C14.782 1.66667 14.3333 1.218 14.3333 0.666667C14.3333 0.298667 14.0346 0 13.6666 0C13.2986 0 13 0.298667 13 0.666667C13 1.218 12.5513 1.66667 12 1.66667C11.632 1.66667 11.3333 1.96533 11.3333 2.33333C11.3333 2.70133 11.632 3 12 3C12.5513 3 13 3.44867 13 4C13 4.368 13.2986 4.66667 13.6666 4.66667C14.0346 4.66667 14.3333 4.368 14.3333 4C14.3333 3.44867 14.782 3 15.3333 3C15.7013 3 16 2.70133 16 2.33333C16 1.96533 15.7013 1.66667 15.3333 1.66667Z" fill="currentColor"/>
<path d="M6.66665 1.66667C6.11532 1.66667 5.66665 1.218 5.66665 0.666667C5.66665 0.298667 5.36798 0 4.99998 0C4.63198 0 4.33332 0.298667 4.33332 0.666667C4.33332 1.218 3.88465 1.66667 3.33332 1.66667C2.96532 1.66667 2.66665 1.96533 2.66665 2.33333C2.66665 2.70133 2.96532 3 3.33332 3C3.88465 3 4.33332 3.44867 4.33332 4C4.33332 4.368 4.63198 4.66667 4.99998 4.66667C5.36798 4.66667 5.66665 4.368 5.66665 4C5.66665 3.44867 6.11532 3 6.66665 3C7.03465 3 7.33332 2.70133 7.33332 2.33333C7.33332 1.96533 7.03465 1.66667 6.66665 1.66667Z" fill="currentColor"/>
<path d="M12 11.6667C12.5513 11.6667 13 12.1153 13 12.6667C13 13.0347 13.2986 13.3333 13.6666 13.3333C14.0346 13.3333 14.3333 13.0347 14.3333 12.6667C14.3333 12.1153 14.782 11.6667 15.3333 11.6667C15.7013 11.6667 16 11.368 16 11C16 10.632 15.7013 10.3333 15.3333 10.3333C14.782 10.3333 14.3333 9.88467 14.3333 9.33333C14.3333 8.96533 14.0346 8.66667 13.6666 8.66667C13.2986 8.66667 13 8.96533 13 9.33333C13 9.88467 12.5513 10.3333 12 10.3333C11.632 10.3333 11.3333 10.632 11.3333 11C11.3333 11.368 11.632 11.6667 12 11.6667Z" fill="currentColor"/>
</g>
<defs>
<clipPath id="clip0_3205_2329">
<rect width="16" height="16" fill="white"/>
</clipPath>
</defs>
</svg>

<svg width="16" height="16" viewBox="0 0 16 16" xmlns="http://www.w3.org/2000/svg"><g clip-path="url(#a)" fill="currentColor"><path d="m11.805 6.195-2-2a.666.666 0 0 0-.943 0L.195 12.862a.666.666 0 0 0 0 .943l2 2a.665.665 0 0 0 .943 0l8.667-8.667a.666.666 0 0 0 0-.943ZM8.667 8.391 7.609 7.333 9.333 5.61l1.058 1.058L8.667 8.39Zm6.666-6.724c-.551 0-1-.449-1-1a.667.667 0 0 0-1.333 0c0 .551-.449 1-1 1A.667.667 0 0 0 12 3c.551 0 1 .449 1 1a.667.667 0 0 0 1.333 0c0-.551.449-1 1-1a.667.667 0 0 0 0-1.333Zm-8.666 0c-.552 0-1-.449-1-1a.667.667 0 0 0-1.334 0c0 .551-.448 1-1 1a.667.667 0 0 0 0 1.333c.552 0 1 .449 1 1a.667.667 0 0 0 1.334 0c0-.551.448-1 1-1a.667.667 0 0 0 0-1.333Zm5.333 10c.551 0 1 .448 1 1a.667.667 0 0 0 1.333 0c0-.552.449-1 1-1a.667.667 0 0 0 0-1.334c-.551 0-1-.448-1-1a.667.667 0 0 0-1.333 0c0 .552-.449 1-1 1a.667.667 0 0 0 0 1.334Z"/></g><defs><clipPath id="a"><path fill="#fff" d="M0 0h16v16H0z"/></clipPath></defs></svg>
